X: 35803
T: Salmon, The
R: reel
M: 4/4
K: Dmajor
|:FDEF DEFG|(3ABc de fedc|BcdB AFDE|FEEF E2AG|
FDEF DEFG|(3ABc de fedc|BcdB AFDG|1 F2D2 D2AG:|2 F2D2 D4||
|:dAFA d2de|(3gfe dc BcdB|(3ABA FA dcde|(3fgf ed e4|
dAFA d2de|(3gfe dc BcdB|(3ABA FA GFEG|1 F2D2 D4:|2 F2D2 D2AG||

